Newaita-dark/actions/symbolic/ephy-bookmarks-symbolic.svg

<svg height="16" viewBox="0 0 16 16" width="16" xmlns="http://www.w3.org/2000/svg"><path d="m7.9375 1.449219c1.039062 0 1.4375 3.53125 2.277344 4.140625.84375.609375 4.324218-.101563 4.644531.886718.320313.988282-2.914063 2.457032-3.234375 3.445313-.324219.988281 1.433594 4.078125.589844 4.691406-.839844.609375-3.238282-2.011719-4.277344-2.011719s-3.433594 2.621094-4.277344 2.011719c-.839844-.613281.914063-3.703125.59375-4.691406-.324218-.988281-3.558594-2.457031-3.234375-3.445313.320313-.988281 3.800781-.277343 4.640625-.886718s1.238282-4.140625 2.277344-4.140625zm0 0" fill="#e0e0e0"/></svg>

<?xml version="1.0" encoding="UTF-8"?>
<svg xmlns="http://www.w3.org/2000/svg" xmlns:xlink="http://www.w3.org/1999/xlink" width="16px" height="16px" viewBox="0 0 16 16" version="1.1">
<g id="surface1">
<path style=" stroke:none;fill-rule:nonzero;fill:rgb(87.843138%,87.843138%,87.843138%);fill-opacity:1;" d="M 7.9375 1.449219 C 8.976562 1.449219 9.375 4.980469 10.214844 5.589844 C 11.058594 6.199219 14.539062 5.488281 14.859375 6.476562 C 15.179688 7.464844 11.945312 8.933594 11.625 9.921875 C 11.300781 10.910156 13.058594 14 12.214844 14.613281 C 11.375 15.222656 8.976562 12.601562 7.9375 12.601562 C 6.898438 12.601562 4.503906 15.222656 3.660156 14.613281 C 2.820312 14 4.574219 10.910156 4.253906 9.921875 C 3.929688 8.933594 0.695312 7.464844 1.019531 6.476562 C 1.339844 5.488281 4.820312 6.199219 5.660156 5.589844 C 6.5 4.980469 6.898438 1.449219 7.9375 1.449219 Z M 7.9375 1.449219 "/>
</g>
</svg>
